X:1
T:Linlithgow Loch
T:Linlithgow Loch
T:Provost Dawson's Favorite
T:William Marshall
C:William Marshall
%%score { ( 1 2 ) 3 }
L:1/8
M:4/4
K:D
V:1 treble 
V:2 treble 
V:3 bass 
V:1
 F | D>E D<A F<DA<F | D>E D<F [A,E]2 [A,E]<F | D>E D<A F<DA<F | d/c/d/e/ f<d F2 F :| G | %6
 d>e f<d e>BdA | Bcd<f e2 e>f | d>e f<d e>Bd>A | G<BF<A E2 E>A | d>efd e>B d<A | B>c d<f e2 e>f | %12
 g>e (g/f/e/)d/ (f/e/d/)c/ d>A | G<BF<A [CE]2 [CE] |] %14
V:2
 x | x8 | x8 | x8 | x7 :| x | x8 | x8 | x8 | x8 | x8 | x8 | A2 A2 G2 F2 | x7 |] %14
V:3
 z | [D,,D,]2 [D,,D,]2 [D,,D,]2 [D,,D,]2 | [D,,D,]2 [D,,D,]2 [A,,,A,,]2 [A,,,A,,]2 | %3
 [D,,D,]2 [D,,D,]2 [D,,D,]2 [D,,D,]2 | [D,,D,]2 [D,,D,]2 [D,,D,]2 [D,,D,] :| z | %6
 [D,F,D]2 [D,F,D]2 [D,G,D]2 [D,F,D]2 | [D,G,D]2 [D,F,D]2 [A,,A,]2 [A,,A,]2 | %8
 [D,F,D]2 [D,F,D]2 [D,G,D]2 [D,F,D]2 | [G,,G,]2 [D,,D,]2 [A,,A,]2 [A,,A,]2 | %10
 [D,F,D]2 [D,F,D]2 [D,G,D]2 [D,F,D]2 | [D,G,D]2 [D,F,D]2 [A,,A,]2 [A,,A,] z | %12
 [C,,C,]2 [D,,D,][F,,F,] [A,,A,]2 [D,D]2 | [G,,G,]2 [D,,D,]2 [A,,A,]2 [A,,A,] |] %14

